X:2
T:White Petticoat, The
R:jig
D:Solas: Solas
Z:Devin McCabe
M:6/8
L:1/8
K:EMin
A|:Bed cBA|GFE B,EG|FBB cBB|eBB cBA|
|Bed cBA|GFE B,EG|FBB cBA|1GEE E2A:|2GEE E2g|
|:gec Gce|gaf gec|cBA EAc|Be^d eBG|
|FBB GBB|FBA GFE|B,EG cBA|1 GEE E2g:|2 GEE E2A||

